X: 22
T: Friendly song (a)
N: Derived from ojibwa22.krn
C: Chippewa Songs ~ 1910
O: Red Wing, Minnesota, U.S.A
N: Chippewa Music by Frances Densmore, 1910
Z: transcribed to **kern format by Paul von Hippel and Daniel T. Shanahan
L: 1/8
M: 3/4
Q: 1/4=108
K: C clef=bass
%%linebreak <none>
C> A,C2C2 | 
[M:2/4]A,> F,A,2 | 
[M:3/4]E,> E,E,7/E,/ | 
[M:2/4]E,4 | 
(3A, E, A, A, A,/ A,/ | 
 [K:A] E,> C,E,2- | 
E,4 | 
(3A, E, E, A,/ E,3/ | 
C,> B,,C,2 | 
B,,> A,,B,,2- | 
B,,4 | 
C,> B,,C,2 | 
B,,> A,, C,3/ B,,/ | 
A,,2A,,3/ A,,/ | 
[M:3/4]A,,6 |]  



